X: 38076
T: Spirits Of Wine, The
R: reel
M: 4/4
K: Gmajor
|:dc|"G"BAGB "D7"AFDc|"G"BDGB d2ef|gd (3Bcd fgdB|"Am"cBAG "D7"FAdc|
"G"BAGB "D7"AFDc|"G"BDGB d2ef|gdBd fgdB|"D7"(3GAG FA "G"G2:|
|:ge|"G"dBBA Bdgf|"C"eccB cege|"G"dBBA Bdge|dBAG "D7"ADFA|
"G"dBBA Bdgf|"C"eccB cege|"G"(3ded Bd "D7"cAFA|"G"GgdB G2:|

